public/client-logos/autorfp.svg

<svg width="135" height="20" viewBox="0 0 135 20" fill="none" xmlns="http://www.w3.org/2000/svg">
<g clip-path="url(#clip0_3_4)">
<path d="M132.82 4.136C132.195 4.136 131.671 3.943 131.249 3.556C130.844 3.153 130.641 2.657 130.641 2.068C130.641 1.48 130.844 0.992 131.249 0.606C131.671 0.202 132.195 0 132.82 0C133.446 0 133.961 0.202 134.367 0.605C134.789 0.992 135 1.48 135 2.068C135 2.657 134.789 3.152 134.367 3.556C133.961 3.943 133.446 4.136 132.82 4.136ZM134.569 5.801V19.773H131.021V5.801H134.569ZM112.931 12.737C112.931 11.324 113.21 10.072 113.767 8.979C114.342 7.886 115.111 7.045 116.074 6.457C117.054 5.868 118.144 5.574 119.343 5.574C120.391 5.574 121.303 5.784 122.081 6.204C122.875 6.625 123.509 7.154 123.982 7.793V5.801H127.555V19.773H123.982V17.73C123.525 18.386 122.892 18.932 122.081 19.37C121.287 19.79 120.366 20 119.318 20C118.135 20 117.054 19.698 116.074 19.092C115.111 18.487 114.342 17.638 113.767 16.545C113.21 15.435 112.931 14.166 112.931 12.737ZM123.981 12.787C123.981 11.929 123.812 11.198 123.474 10.593C123.137 9.97 122.68 9.5 122.106 9.18C121.531 8.844 120.915 8.676 120.256 8.676C119.597 8.676 118.988 8.836 118.431 9.155C117.873 9.474 117.417 9.945 117.062 10.567C116.724 11.172 116.555 11.896 116.555 12.736C116.555 13.577 116.724 14.317 117.062 14.956C117.417 15.578 117.873 16.057 118.431 16.393C119.005 16.73 119.613 16.898 120.256 16.898C120.915 16.898 121.531 16.738 122.106 16.419C122.68 16.082 123.137 15.611 123.474 15.006C123.812 14.384 123.981 13.644 123.981 12.787ZM109.047 19.95C108.524 19.95 108.085 19.773 107.73 19.42C107.375 19.067 107.197 18.63 107.197 18.108C107.197 17.587 107.375 17.15 107.73 16.797C108.085 16.444 108.524 16.267 109.047 16.267C109.555 16.267 109.985 16.444 110.34 16.797C110.695 17.15 110.873 17.587 110.873 18.108C110.873 18.63 110.695 19.067 110.34 19.42C109.985 19.773 109.555 19.95 109.047 19.95Z" fill="#0075FF"/>
<path d="M107.323 7.76799C107.323 8.79399 107.086 9.73499 106.613 10.593C106.14 11.434 105.413 12.115 104.433 12.636C103.453 13.157 102.237 13.418 100.783 13.418H98.097V19.773H93.763V2.06799H100.783C102.203 2.06799 103.402 2.31199 104.383 2.79999C105.363 3.28699 106.098 3.95999 106.588 4.81699C107.078 5.67499 107.323 6.65899 107.323 7.76799ZM100.454 9.98799C101.282 9.98799 101.899 9.79399 102.304 9.40799C102.71 9.02099 102.912 8.47399 102.912 7.76799C102.912 7.06199 102.71 6.51599 102.304 6.12899C101.899 5.74199 101.282 5.54899 100.454 5.54899H98.097V9.98799H100.454ZM91.485 2.06799V5.52299H84.236V9.25599H89.66V12.611H84.236V19.773H79.901V2.06799H91.485ZM72.441 19.773L68.74 13.09H67.701V19.773H63.367V2.06799H70.641C72.044 2.06799 73.235 2.31199 74.215 2.79999C75.212 3.28699 75.956 3.95999 76.446 4.81699C76.936 5.65799 77.181 6.59999 77.181 7.64199C77.181 8.81899 76.843 9.86999 76.167 10.795C75.508 11.72 74.528 12.375 73.227 12.762L77.333 19.773H72.441ZM67.701 10.038H70.388C71.182 10.038 71.773 9.84499 72.162 9.45799C72.568 9.07099 72.77 8.52499 72.77 7.81899C72.77 7.14599 72.568 6.61599 72.162 6.22999C71.773 5.84299 71.182 5.64999 70.388 5.64999H67.701V10.038ZM53.667 19.975C52.281 19.975 51.031 19.681 49.915 19.092C48.817 18.504 47.947 17.663 47.305 16.57C46.68 15.477 46.367 14.199 46.367 12.736C46.367 11.29 46.688 10.021 47.33 8.92799C47.972 7.81799 48.851 6.96899 49.966 6.38099C51.081 5.79199 52.332 5.49799 53.717 5.49799C55.103 5.49799 56.353 5.79199 57.469 6.38099C58.584 6.96899 59.462 7.81799 60.105 8.92799C60.747 10.021 61.068 11.291 61.068 12.736C61.068 14.182 60.738 15.46 60.079 16.57C59.437 17.663 58.55 18.504 57.418 19.092C56.303 19.681 55.052 19.975 53.667 19.975ZM53.667 16.242C54.495 16.242 55.196 15.94 55.771 15.334C56.362 14.729 56.658 13.863 56.658 12.736C56.658 11.61 56.371 10.744 55.796 10.139C55.238 9.53299 54.546 9.23099 53.718 9.23099C52.873 9.23099 52.172 9.53299 51.614 10.139C51.056 10.727 50.778 11.593 50.778 12.736C50.778 13.863 51.048 14.729 51.589 15.334C52.146 15.939 52.839 16.242 53.667 16.242ZM44.815 16.116V19.773H42.61C41.039 19.773 39.814 19.395 38.935 18.638C38.057 17.865 37.617 16.612 37.617 14.881V9.28099H35.894V5.69999H37.617V2.26999H41.951V5.69999H44.79V9.28099H41.951V14.931C41.951 15.351 42.053 15.654 42.256 15.839C42.458 16.024 42.796 16.116 43.269 16.116H44.815ZM33.819 5.69999V19.773H29.485V17.856C29.045 18.478 28.445 18.983 27.685 19.369C26.942 19.739 26.114 19.924 25.201 19.924C24.12 19.924 23.165 19.689 22.337 19.218C21.509 18.731 20.867 18.033 20.411 17.125C19.955 16.217 19.726 15.149 19.726 13.922V5.69999H24.035V13.342C24.035 14.283 24.28 15.015 24.77 15.536C25.26 16.057 25.919 16.318 26.747 16.318C27.592 16.318 28.26 16.057 28.75 15.536C29.24 15.015 29.485 14.283 29.485 13.342V5.69999H33.819ZM12.242 16.646H5.601L4.537 19.773H0L6.438 2.06799H11.456L17.894 19.773H13.307L12.242 16.646ZM11.127 13.316L8.922 6.83499L6.742 13.316H11.127Z" fill="#1B2631"/>
</g>
<defs>
<clipPath id="clip0_3_4">
<rect width="135" height="20" fill="white"/>
</clipPath>
</defs>
</svg>

<svg xmlns="http://www.w3.org/2000/svg" width="135" height="20" fill="none" viewBox="0 0 135 20"><g clip-path="url(#a)"><path fill="#0075ff" d="M132.82 4.136q-.938 0-1.571-.58a2.02 2.02 0 0 1-.608-1.488q0-.883.608-1.462Q131.882 0 132.82 0t1.547.605q.633.58.633 1.463t-.633 1.488q-.609.58-1.547.58m1.749 1.665v13.972h-3.548V5.801zm-21.638 6.936q0-2.119.836-3.758.862-1.64 2.307-2.522 1.47-.883 3.269-.883 1.571 0 2.738.63 1.191.631 1.901 1.589V5.801h3.573v13.972h-3.573V17.73q-.685.983-1.901 1.64-1.191.63-2.763.63a6.05 6.05 0 0 1-3.244-.908q-1.444-.907-2.307-2.547-.836-1.665-.836-3.808m11.05.05q0-1.287-.507-2.194a3.45 3.45 0 0 0-1.368-1.413 3.6 3.6 0 0 0-1.85-.504 3.6 3.6 0 0 0-1.825.479q-.837.479-1.369 1.412-.507.908-.507 2.169t.507 2.22q.532.933 1.369 1.437a3.55 3.55 0 0 0 1.825.505q.988 0 1.85-.479a3.7 3.7 0 0 0 1.368-1.413q.507-.933.507-2.219m-14.934 7.163q-.785 0-1.317-.53a1.78 1.78 0 0 1-.533-1.312q0-.782.533-1.311.532-.53 1.317-.53.761 0 1.293.53.533.53.533 1.311 0 .783-.533 1.312-.532.53-1.293.53"/><path fill="#1b2631" d="M107.323 7.768a5.75 5.75 0 0 1-.71 2.825q-.71 1.261-2.18 2.043t-3.65.782h-2.686v6.355h-4.334V2.068h7.02q2.13 0 3.6.732 1.47.731 2.205 2.017t.735 2.951m-6.869 2.22q1.242 0 1.85-.58t.608-1.64-.608-1.639-1.85-.58h-2.357v4.439zm-8.969-7.92v3.455h-7.249v3.733h5.424v3.355h-5.424v7.162h-4.335V2.068zM72.441 19.773 68.74 13.09h-1.039v6.683h-4.334V2.068h7.274q2.104 0 3.574.732 1.496.731 2.231 2.017.735 1.262.735 2.825 0 1.765-1.014 3.153-.989 1.387-2.94 1.967l4.106 7.011zm-4.74-9.735h2.687q1.19 0 1.774-.58.609-.58.608-1.639 0-1.01-.608-1.589-.583-.58-1.774-.58h-2.687zm-14.034 9.937q-2.079 0-3.752-.883a6.6 6.6 0 0 1-2.61-2.522q-.938-1.64-.938-3.834 0-2.169.963-3.808a6.5 6.5 0 0 1 2.636-2.547q1.673-.883 3.751-.883 2.079 0 3.752.883a6.5 6.5 0 0 1 2.636 2.547q.963 1.64.963 3.808t-.989 3.834a6.5 6.5 0 0 1-2.661 2.522q-1.673.883-3.751.883m0-3.733q1.242 0 2.104-.908.887-.908.887-2.598t-.862-2.597a2.7 2.7 0 0 0-2.078-.908q-1.267 0-2.104.908-.836.882-.836 2.597 0 1.69.811 2.598a2.71 2.71 0 0 0 2.078.908m-8.852-.126v3.657H42.61q-2.356 0-3.675-1.135-1.317-1.16-1.318-3.757v-5.6h-1.723V5.7h1.723V2.27h4.334V5.7h2.839v3.581h-2.839v5.65q0 .63.305.908.303.277 1.013.277zM33.819 5.7v14.073h-4.334v-1.917q-.66.933-1.8 1.513-1.115.555-2.484.555-1.622 0-2.864-.706-1.242-.73-1.926-2.093t-.685-3.203V5.7h4.309v7.642q0 1.412.735 2.194t1.977.782q1.268 0 2.003-.782t.735-2.194V5.7zM12.242 16.646H5.601l-1.064 3.127H0L6.438 2.068h5.018l6.438 17.705h-4.587zm-1.115-3.33L8.922 6.835l-2.18 6.481z"/></g><defs><clipPath id="a"><path fill="#fff" d="M0 0h135v20H0z"/></clipPath></defs></svg>
